X:1
T:Brighter Are the Sunbeams
T:Brighter Are the Sunbeams
T:Fred C. Pullin
T:Eliza Edmunds Hewitt, 1904
T:Public Domain Courtesy of the Cyber Hymnal™
T:Public Domain Courtesy of the Cyber Hymnal™
C:Fred C. Pullin
Z:Public Domain
Z:Courtesy of the Cyber Hymnal™
%%score ( 1 2 ) ( 3 4 )
L:1/8
Q:1/4=107
M:4/4
K:Ab
V:1 treble 
V:2 treble 
V:3 bass 
V:4 bass 
V:1
 A>"^Allegro marcia"G A3/2 [CG]2 [Cc]2 x/ | [CF]2 [Cc]2 [CE]2 F>A | [DG]6 E>B | (A4 A2) z2 | %4
w: 1.~Bright- er are the sun-|beams on this day, O|re- joice, heart|and *|
w: 2.~Hear the mess- age from|the leaf- y bough; Ro-|bins sing, blue-|bells *|
w: 3.~O, the hap- py spring-|time of the soul; Sha-|dows go, lil-|ies *|
 A>G A>c [CG]2 [Cc]2 | [CF]2 [Cc]2 [CE]2 F>A | [EG]2 [EB]2 F>=E F>G | E6 E2 x4 | %8
w: voice! Sweet- er buds un- fold-|ing by the way, Tell-|ing of the quick- ’ning life|of spring;|
w: ring; Ev- ery bud and blos-|som tells us now Je-|sus rose tri- umph- ant o’er|the grave;|
w: blow; Je- sus makes the wound-|ed spir- it whole; Love|is bloom- ing, sing- ing in|the heart;|
 [DF]2 [DE]2 [Dc]2 B>c | [CB]4 [CA]2 A>B | [DA]4 [DG]2 F>G | [CF]4 [CE]2 [CE]2 | %12
w: Bright sun- beams tell out|the sto- ry Of|the East- er joy|and glo- ry,|
w: Oh, seek the Lord, though|in sor- row, From|the gar- den glad-|ness bor- row,|
w: For hope’s bright morn is|a- wak- ing, Night|is pass- ing, day|is break- ing,|
 [DF]2 [DE]2 [Dc]2 B>c | [CB]4 [CA]2 [EA]2 | [EG]2 [EB]2 [=DA]2 [DF]2 | E6 z2 || %16
w: And win- ter’s gone— cold|and hoar- y,|All hail our vic-|tor|
w: For af- ter night dawns|the mor- row;|He com- eth forth|to|
w: And Christ, His own ne’er|for- sak- ing,|Bids ev- ery fear|de-|
"^Refrain" A>G A>c [CG]2 [Cc]2 | [CF]2 [Cc]2 [CE]2 F>A | [DG]6 E>B | [CA]6 z2 | %20
w: king. * * * * *||||
w: save. Hal- le- lu- jah to|our vic- tor king! “Go|your way,” an-|gels|
w: part. * * * * *||||
 A>G A>c [CEB]2 [CEA]2 | [DAd]2 [DAd]2 [DA]2 [DAB]2 | [EAc]2 [CE]2 B>=A B>c | A8 |] %24
w: ||||
w: say; O- ver hill and val-|ley, tid- ings bring;|The Sav- ior lives for us|to-|
w: ||||
V:2
 C2 C2 c/ x7/2 | x6 C2 | x6 D2 | C6 x2 | C2 C2 x4 | x6 C2 | x4 =D2 D2 | E6 E2 x4 | x6 D2 | x6 C2 | %10
 x6 D2 | x8 | x6 D2 | x8 | x8 | E6 x2 || C2 C2 x4 | x6 C2 | x6 D2 | x8 | C2 C2 x4 | x8 | %22
 x4 [DG]2 [DG]2 | (C2 D2 C4) |] %24
V:3
 [A,,E,]2 [E,,E,]2 [A,,E,]2 [E,,E,]2 | [A,,E,]2 [E,,E,]2 [A,,E,]2 [E,,E,]2 | %2
 ([B,,E,]2 [E,,E,]2 [B,,E,]2) [E,,E,]2 | ([A,,E,]2 [E,,E,]2 [A,,E,]2) [E,,E,]2 | %4
 [A,,E,]2 [E,,E,]2 [A,,E,]2 [E,,E,]2 | [A,,E,]2 [E,,E,]2 [A,,E,]2 [A,,E,]2 | %6
 [B,,B,]2 [B,,G,]2 [B,,A,]2 [B,,A,]2 | (z2 E,2) x8 | [B,,E,]2 [E,,E,]2 [G,,E,]2 [F,,E,]2 | %9
 ([A,,E,]2 [E,,E,]2) [A,,E,]2 [E,,E,]2 | ([B,,E,]2 [E,,E,]2) [B,,E,]2 [E,,E,]2 | %11
 ([A,,E,]2 [E,,E,]2) [A,,E,]2 [A,,E,]2 | [B,,E,]2 [E,,E,]2 [G,,E,]2 [E,,E,]2 | %13
 ([A,,E,]2 [E,,E,]2) [A,,E,]2 [C,A,]2 | [B,,B,]2 [B,,G,]2 [B,,F,]2 [B,,A,]2 | G,6 B,,2 || %16
 [A,,E,]2 [E,,E,]2 [A,,E,]2 [E,,E,]2 | [A,,E,]2 [E,,E,]2 [A,,E,]2 [E,,E,]2 | %18
 ([B,,E,]2 [E,,E,]2 [B,,E,]2) [E,,E,]2 | ([A,,E,]2 [E,,E,]2 [A,,E,]2 [E,,E,]2) | %20
 [A,,E,]2 [A,,A,]2 [_G,,_G,]2 [G,,G,]2 | [F,,F,]2 [F,,F,]2 [_F,,_F,]2 [F,,F,]2 | %22
 [E,,E,]2 [A,,E,]2 [G,,E,]2 [E,,E,]2 | (E,2 F,2 E,4) |] %24
V:4
 x8 | x8 | x8 | x8 | x8 | x8 | x8 | ([E,G,]6 B,,2 E,,2) E,2 | x8 | x8 | x8 | x8 | x8 | x8 | x8 | %15
 E,2 D,2 C,2 x2 || x8 | x8 | x8 | x8 | x8 | x8 | x8 | A,,8 |] %24

